X: 14
T: Jump At The Sun
R: jig
M: 6/8
L: 1/8
K: Emin
|: ^D | EBB ^A2 B | EBE ^A2 B | EBB EBB | CBA GAF |
EBB ^A2 B | EBE ^A2 B | EBB cBA | GAF E2 :|
|: d | eBe gfe | fBf agf | eBB gfe | fBB ^A2 B |
e2 B g2 e | f3 a2 f | eBB cBA | GAF E2 :|


Tune 736	Setting 13811

